X:1

T:Devanny’s

M:C|

L:1/8

R:Reel

K:D

FE | DFAB AFAB | defe dBAF | DF (3FFF BFAF | E2 ED EGFE |DF (3FFF ADFA|

defe dBAf | efdB AFdB | AFEF D2 :: eg | faab afdf |afef dB (3BBB | ABde fedf |

e3f edBd | Adcd fdcd | edfd edBd | A2 dB AFDF | AFEF D2 :|

                       

DEVANT TA PORTE (As I Passed Your Door). Cajun. From the playing of the late Cajun fiddler Louis Balfa. Green Linnet GLCD 3107, Aly Bain & Phil Cunningham – “The Pearl” (1994).

                       

DEVER THE DANCER ("Cnuic Tiobraid-Arainn" or "Ua Duibir, an Rinnceoir"). AKA and see "The Humours of Whiskey [2]," "The Peeler's/Policeman's Return," "Deel of the Dance," "The Bridge of Athlone [1]," "Dillon's Fancy [2]," "The Crossroads Frolic," "Barranna mora Chlann Donncha," "Humours of Derry," "Plearaca an Fuisce." Irish, Slip Jig (9/8 time). E Dorian ('A' part) & D Major ('B' part). Standard. AAB (O'Neill/Krassen & 1001): AABB (O'Neill/1850, Tubridy). Flute player John McKenna (1880-1947) and banjo player Michael Gaffney (d. 1972), both originally from County Leitrim, made a famous recording of the tune for Decca in 1934, in which they paired the tune with the double jig “Connie the Soldier.” McKenna and Gaffney were fast friends, remembers McKenna’s daughter Catherine, who told Harry Bradshaw and Jackie Small that she could not remember a week that Gaffney was not in her father’s house playing his banjo or rehearsing new numbers with the flutist for recordings, dances, weddings and other events they had booked. Breathnach (Folk Music and Dances of Ireland), 1971; No. 10. Cotter (Traditional Irish Tin Whistle Tutor), 1989; 60. O'Neill (Krassen), 1976; pg. 83. O'Neill (Music of Ireland: 1850 Melodies), 1903/1979; No. 1148, pg. 216. O'Neill (Dance Music of Ireland: 1001 Gems), 1907/1986; No. 431, pg. 85. Tubridy (Irish Traditional Music, Book Two), 1999; pg. 41. Celtic Crossings CD0299-02, Gearóid Ó hAllmhuráin & Patrick Ourceau – “Tracin” (1999). Decca Records (78 RPM), John McKenna & Michael Gaffney (1934). DREY 36192, Alan Stivell - "Live in Dublin." Kells Music 9507, Dervish – “At the End of the Day” (appears as part of “Packie Duignan Set”).

